dist/svg/key-off.svg

<!-- Generated by Trend Micro Style Portal -->
<svg version="1.1" xmlns="http://www.w3.org/2000/svg" width="16" height="16" viewBox="0 0 16 16">
  <title>key-off</title>
  <path fill="rgb(34,34,34)" d="M16 7v-5c-0.003-1.103-0.897-1.997-2-2h-5c-1.103 0.003-1.997 0.897-2 2v3.9l-5.9-5.9-1.1 1.1 14.9 14.9 1.1-1.1-5.9-5.9h3.9c1.103-0.003 1.997-0.897 2-2v-0zM12.5 5c-0.82-0.021-1.479-0.68-1.5-1.498l-0-0.002c0-0.828 0.672-1.5 1.5-1.5s1.5 0.672 1.5 1.5v0c-0.021 0.82-0.68 1.479-1.498 1.5l-0.002 0zM4.8 8l3.1 3.1-4.9 4.9h-3v-3l1-1v-2h2v-2z"></path>
</svg>

<svg width="16" height="16" viewBox="0 0 16 16" fill="rgb(34, 34, 34)" xmlns="http://www.w3.org/2000/svg"><title>key-off</title><path d="M16 7V2C15.997 0.897 15.103 0.003 14 0H9C7.897 0.003 7.003 0.897 7 2V5.9L1.1 0L0 1.1L14.9 16L16 14.9L10.1 9H14C15.103 8.997 15.997 8.103 16 7ZM12.5 5C11.68 4.979 11.021 4.32 11 3.502V3.5C11 2.672 11.672 2 12.5 2C13.328 2 14 2.672 14 3.5C13.979 4.32 13.32 4.979 12.502 5H12.5ZM4.8 8L7.9 11.1L3 16H0V13L1 12V10H3V8H4.8Z" fill="rgb(34, 34, 34)" fill-opacity="1.00"/></svg>
